out/images/twitterLogo.svg

<svg height="19" viewBox="0 0 22 19" width="22" xmlns="http://www.w3.org/2000/svg"><path d="m19.7227 5.28125c.8593-.64453 1.6328-1.41797 2.2343-2.32031-.7734.34375-1.6758.60156-2.5781.6875.9453-.5586 1.6328-1.41797 1.9766-2.49219-.8594.51563-1.8477.90234-2.836 1.11719-.8593-.90235-2.0195-1.417971-3.3086-1.417971-2.4921 0-4.5117 2.019531-4.5117 4.511721 0 .34375.043.6875.1289 1.03125-3.73826-.21485-7.08982-2.01953-9.32419-4.72656-.38672.64453-.601566 1.41796-.601566 2.27734 0 1.54687.773436 2.92187 2.019536 3.73828-.73047-.04297-1.46094-.21484-2.062505-.55859v.04297c0 2.1914 1.546875 3.99612 3.609375 4.42582-.34375.0859-.77344.1718-1.16016.1718-.30078 0-.55859-.0429-.85937-.0859.55859 1.8047 2.23437 3.0937 4.21094 3.1367-1.54688 1.2031-3.48047 1.9336-5.58594 1.9336-.38672 0-.73047-.043-1.07422-.0859 1.97656 1.289 4.33984 2.0195 6.91797 2.0195 8.29293 0 12.80473-6.832 12.80473-12.80469 0-.21484 0-.38672 0-.60156z" fill="#fff"/></svg>

<svg width="22" height="19" viewBox="0 0 22 19"  xmlns="http://www.w3.org/2000/svg">
<path d="M19.7227 5.28125C20.582 4.63672 21.3555 3.86328 21.957 2.96094C21.1836 3.30469 20.2812 3.5625 19.3789 3.64844C20.3242 3.08984 21.0117 2.23047 21.3555 1.15625C20.4961 1.67188 19.5078 2.05859 18.5195 2.27344C17.6602 1.37109 16.5 0.855469 15.2109 0.855469C12.7188 0.855469 10.6992 2.875 10.6992 5.36719C10.6992 5.71094 10.7422 6.05469 10.8281 6.39844C7.08984 6.18359 3.73828 4.37891 1.50391 1.67188C1.11719 2.31641 0.902344 3.08984 0.902344 3.94922C0.902344 5.49609 1.67578 6.87109 2.92188 7.6875C2.19141 7.64453 1.46094 7.47266 0.859375 7.12891V7.17188C0.859375 9.36328 2.40625 11.168 4.46875 11.5977C4.125 11.6836 3.69531 11.7695 3.30859 11.7695C3.00781 11.7695 2.75 11.7266 2.44922 11.6836C3.00781 13.4883 4.68359 14.7773 6.66016 14.8203C5.11328 16.0234 3.17969 16.7539 1.07422 16.7539C0.6875 16.7539 0.34375 16.7109 0 16.668C1.97656 17.957 4.33984 18.6875 6.91797 18.6875C15.2109 18.6875 19.7227 11.8555 19.7227 5.88281C19.7227 5.66797 19.7227 5.49609 19.7227 5.28125Z" fill="white"/>
</svg>
